pro/src/icons/stroke-shout.svg

<svg width="48" height="48" viewBox="0 0 48 48" fill="none" xmlns="http://www.w3.org/2000/svg">
<path id="icon" fill-rule="evenodd" clip-rule="evenodd" d="M22.5144 5.52815C20.9064 6.53136 20.428 8.62618 21.446 10.2071L21.5648 10.3915L19.8971 12.4774C19.539 12.9253 19.6175 13.5736 20.0724 13.9254C20.5272 14.2773 21.1863 14.1994 21.5444 13.7514L22.7354 12.2618L35.2757 31.7373L11.1993 37.1808L7.45806 31.3705L17.3291 19.0239C17.6872 18.576 17.6088 17.9277 17.1539 17.5759C16.699 17.224 16.0399 17.302 15.6818 17.7499L5.30036 30.7349L3.42242 31.9467C1.98517 32.8741 1.56913 34.7638 2.48801 36.1909L4.67623 39.5893C5.61532 41.0477 7.58721 41.4659 9.05606 40.518L10.8138 39.3838L15.0756 38.4202L15.5891 40.6968C15.9489 42.2915 17.5485 43.2892 19.162 42.925C19.7254 42.7979 20.0803 42.2433 19.9547 41.6864C19.8291 41.1295 19.2705 40.7812 18.7071 40.9083C18.2204 41.0181 17.738 40.7173 17.6295 40.2363L17.1158 37.959L30.2847 34.9816L30.5411 36.1182C30.7923 37.232 30.0825 38.3411 28.9556 38.5954L23.4603 39.8356C22.8969 39.9627 22.542 40.5173 22.6676 41.0742C22.7932 41.6311 23.3518 41.9795 23.9152 41.8523L29.4105 40.6121C31.6643 40.1034 33.0839 37.8853 32.5814 35.6577L32.3249 34.5203L36.4943 33.5777L36.5267 33.6281C37.5446 35.2089 39.6734 35.6772 41.2814 34.674C42.8894 33.6708 43.3678 31.576 42.3498 29.9951L27.2691 6.57411C26.2512 4.99323 24.1224 4.52493 22.5144 5.52815ZM23.2174 9.1019C22.8188 8.48284 23.0061 7.66252 23.6358 7.26967C24.2655 6.87682 25.0991 7.0602 25.4977 7.67926L40.5784 31.1003C40.977 31.7193 40.7897 32.5396 40.16 32.9325C39.5303 33.3253 38.6967 33.142 38.2981 32.5229L23.2174 9.1019ZM4.57089 33.671L5.63678 32.9832L8.94649 38.1233L7.90759 38.7937C7.41797 39.1096 6.76067 38.9703 6.44764 38.4841L4.25943 35.0857C3.95313 34.61 4.09181 33.9801 4.57089 33.671ZM42.5496 14.3478C43.0193 14.0414 43.1462 13.4206 42.8331 12.961C42.52 12.5015 41.8854 12.3773 41.4157 12.6837L38.2834 14.6132C37.8137 14.9196 37.6868 15.5405 38 16C38.3131 16.4595 38.9477 16.5837 39.4174 16.2774L42.5496 14.3478ZM45.997 21.6226C46.0333 22.1738 45.6061 22.6494 45.0428 22.6849L41.5 22.9998C40.9366 23.0353 40.4505 22.6174 40.4142 22.0662C40.3779 21.5151 40.8051 21.0395 41.3684 21.0039L44.9112 20.6891C45.4745 20.6535 45.9607 21.0715 45.997 21.6226ZM36.5672 7.44308C36.8174 6.94801 36.61 6.34823 36.104 6.10344C35.598 5.85866 34.9849 6.06155 34.7347 6.55663L33.1676 9.61354C32.9174 10.1086 33.1248 10.7084 33.6308 10.9532C34.1368 11.198 34.7498 10.9951 35 10.5L36.5672 7.44308Z" fill="currentColor"/>
</svg>

<svg xmlns="http://www.w3.org/2000/svg" width="48" height="48" fill="none"><path id="icon" fill="currentColor" fill-rule="evenodd" d="M22.514 5.528a3.36 3.36 0 0 0-1.068 4.68l.119.184-1.668 2.085a1.02 1.02 0 0 0 .175 1.448 1.06 1.06 0 0 0 1.472-.174l1.191-1.49 12.54 19.476L11.2 37.181l-3.74-5.81 9.87-12.347a1.02 1.02 0 0 0-.175-1.448 1.06 1.06 0 0 0-1.472.174L5.3 30.735l-1.878 1.212a3.065 3.065 0 0 0-.934 4.244l2.188 3.398c.94 1.459 2.911 1.877 4.38.929l1.758-1.134 4.262-.964.513 2.277c.36 1.594 1.96 2.592 3.573 2.228a1.04 1.04 0 0 0 .793-1.239 1.04 1.04 0 0 0-1.248-.778.9.9 0 0 1-1.078-.672l-.513-2.277 13.169-2.977.256 1.136c.251 1.114-.459 2.223-1.585 2.477l-5.496 1.24a1.04 1.04 0 0 0-.792 1.24 1.04 1.04 0 0 0 1.247.777l5.496-1.24c2.253-.509 3.673-2.727 3.17-4.954l-.256-1.138 4.17-.942.032.05c1.018 1.58 3.146 2.05 4.754 1.046a3.36 3.36 0 0 0 1.069-4.679L27.27 6.575c-1.019-1.582-3.148-2.05-4.756-1.047m.703 3.574a1.316 1.316 0 0 1 .419-1.832 1.36 1.36 0 0 1 1.862.41l15.08 23.42c.399.62.212 1.44-.418 1.832s-1.463.21-1.862-.41zM4.571 33.67l1.066-.688 3.31 5.14-1.04.67a1.06 1.06 0 0 1-1.46-.309L4.26 35.086a1.02 1.02 0 0 1 .312-1.415M42.55 14.348a.987.987 0 0 0 .283-1.387 1.036 1.036 0 0 0-1.417-.277l-3.133 1.93A.987.987 0 0 0 38 16c.313.46.948.584 1.417.277zm3.447 7.275a1.01 1.01 0 0 1-.954 1.062L41.5 23a1.015 1.015 0 0 1-1.086-.934 1.01 1.01 0 0 1 .954-1.062l3.543-.315a1.015 1.015 0 0 1 1.086.934m-9.43-14.18a.99.99 0 0 0-.463-1.34 1.033 1.033 0 0 0-1.37.454l-1.566 3.057a.99.99 0 0 0 .463 1.34A1.033 1.033 0 0 0 35 10.5z" clip-rule="evenodd"/></svg>
